flaticon/technology/photo-camera.svg

<svg xmlns="http://www.w3.org/2000/svg" width="32" height="32" viewBox="0 0 24 24">
    <path d="M 5.085938 15.863281 C 5.085938 19.675781 8.1875 22.78125 12 22.78125 C 15.8125 22.78125 18.914062 19.675781 18.914062 15.863281 C 18.914062 12.050781 15.8125 8.949219 12 8.949219 C 8.1875 8.949219 5.085938 12.050781 5.085938 15.863281 Z M 18.101562 15.863281 C 18.101562 19.230469 15.363281 21.964844 12 21.964844 C 8.636719 21.964844 5.898438 19.230469 5.898438 15.863281 C 5.898438 12.5 8.636719 9.761719 12 9.761719 C 15.363281 9.761719 18.101562 12.5 18.101562 15.863281 Z M 18.101562 15.863281"/>
    <path d="M6.21875 21.835938C6.375 21.5 6.324219 21.113281 6.082031 20.824219 4.914062 19.4375 4.269531 17.675781 4.269531 15.863281 4.269531 13.703125 5.1875 11.628906 6.789062 10.167969 7.078125 9.90625 7.171875 9.503906 7.03125 9.140625 6.890625 8.777344 6.546875 8.542969 6.15625 8.542969L1.816406 8.542969C1.148438 8.542969.609375 9.082031.609375 9.746094L.609375 21.167969C.609375 21.832031 1.148438 22.371094 1.816406 22.371094L5.375 22.371094C5.742188 22.371094 6.066406 22.167969 6.21875 21.835938zM5.480469 21.492188C5.460938 21.535156 5.425781 21.558594 5.371094 21.558594L1.816406 21.558594C1.597656 21.558594 1.421875 21.382812 1.421875 21.167969L1.421875 9.746094C1.421875 9.53125 1.597656 9.355469 1.816406 9.355469L6.15625 9.355469C6.226562 9.355469 6.257812 9.398438 6.273438 9.433594 6.285156 9.46875 6.292969 9.519531 6.242188 9.566406 4.472656 11.179688 3.457031 13.476562 3.457031 15.863281 3.457031 17.867188 4.167969 19.8125 5.460938 21.347656 5.507812 21.40625 5.496094 21.464844 5.480469 21.492188zM22.183594 8.542969L17.84375 8.542969C17.453125 8.542969 17.109375 8.777344 16.96875 9.140625 16.828125 9.503906 16.921875 9.90625 17.210938 10.167969 18.8125 11.628906 19.730469 13.703125 19.730469 15.863281 19.730469 17.675781 19.085938 19.4375 17.917969 20.824219 17.675781 21.109375 17.625 21.5 17.78125 21.835938 17.933594 22.167969 18.257812 22.371094 18.625 22.371094L22.1875 22.371094C22.851562 22.371094 23.390625 21.832031 23.390625 21.167969L23.390625 9.746094C23.390625 9.082031 22.851562 8.542969 22.183594 8.542969zM22.578125 21.167969C22.578125 21.382812 22.402344 21.558594 22.183594 21.558594L18.625 21.558594C18.574219 21.558594 18.539062 21.535156 18.519531 21.492188 18.503906 21.464844 18.492188 21.40625 18.539062 21.347656 19.832031 19.8125 20.542969 17.867188 20.542969 15.863281 20.542969 13.476562 19.527344 11.179688 17.757812 9.566406 17.707031 9.519531 17.714844 9.46875 17.726562 9.433594 17.742188 9.398438 17.773438 9.355469 17.84375 9.355469L22.183594 9.355469C22.402344 9.355469 22.574219 9.53125 22.574219 9.746094 22.574219 9.746094 22.574219 21.167969 22.578125 21.167969zM8.746094 15.863281C8.746094 17.660156 10.207031 19.117188 12 19.117188 13.792969 19.117188 15.253906 17.660156 15.253906 15.863281 15.253906 14.070312 13.792969 12.609375 12 12.609375 10.207031 12.609375 8.746094 14.070312 8.746094 15.863281zM14.441406 15.863281C14.441406 17.210938 13.347656 18.304688 12 18.304688 10.652344 18.304688 9.558594 17.210938 9.558594 15.863281 9.558594 14.519531 10.652344 13.421875 12 13.421875 13.347656 13.421875 14.441406 14.519531 14.441406 15.863281zM5.085938 6.101562L1.832031 6.101562 1.832031 8.136719 5.085938 8.136719zM4.269531 7.320312L2.644531 7.320312 2.644531 6.914062 4.269531 6.914062zM18.914062 8.136719L21.761719 8.136719C21.988281 8.136719 22.167969 7.953125 22.167969 7.730469 22.167969 7.503906 21.988281 7.320312 21.761719 7.320312L18.914062 7.320312C18.691406 7.320312 18.507812 7.503906 18.507812 7.730469 18.507812 7.953125 18.691406 8.136719 18.914062 8.136719zM7.117188 8.542969C7.34375 8.542969 7.527344 8.359375 7.527344 8.136719L16.472656 8.136719C16.472656 8.359375 16.65625 8.542969 16.882812 8.542969 17.105469 8.542969 17.289062 8.359375 17.289062 8.136719L17.289062 7.730469C17.289062 7.503906 17.105469 7.320312 16.882812 7.320312L13.21875 7.320312 13.21875 6.269531C14.410156 5.785156 15.253906 4.617188 15.253906 3.253906 15.253906 1.460938 13.792969 0 12 0 10.207031 0 8.746094 1.460938 8.746094 3.253906 8.746094 4.617188 9.589844 5.785156 10.78125 6.269531L10.78125 7.320312 7.117188 7.320312C6.894531 7.320312 6.710938 7.503906 6.710938 7.730469L6.710938 8.136719C6.710938 8.359375 6.894531 8.542969 7.117188 8.542969zM12.40625 7.320312L11.59375 7.320312 11.59375 6.484375C11.601562 6.484375 11.609375 6.484375 11.621094 6.484375 11.746094 6.5 11.871094 6.507812 12 6.507812 12.128906 6.507812 12.253906 6.5 12.378906 6.484375 12.390625 6.484375 12.398438 6.484375 12.40625 6.484375zM9.558594 3.253906C9.558594 1.910156 10.652344.8125 12 .8125 13.347656.8125 14.441406 1.910156 14.441406 3.253906 14.441406 4.34375 13.722656 5.265625 12.738281 5.582031L12.703125 5.589844C12.699219 5.59375 12.695312 5.59375 12.691406 5.59375 12.589844 5.625 12.484375 5.644531 12.382812 5.660156 12.363281 5.664062 12.34375 5.667969 12.324219 5.671875 12.109375 5.699219 11.890625 5.699219 11.675781 5.671875 11.65625 5.667969 11.636719 5.664062 11.617188 5.660156 11.511719 5.644531 11.410156 5.625 11.308594 5.59375 11.304688 5.59375 11.300781 5.59375 11.296875 5.589844L11.261719 5.582031C10.273438 5.265625 9.558594 4.34375 9.558594 3.253906zM17.695312 22.371094C17.46875 22.371094 17.289062 22.554688 17.289062 22.78125L17.289062 23.1875 6.710938 23.1875 6.710938 22.78125C6.710938 22.554688 6.53125 22.371094 6.304688 22.371094 6.082031 22.371094 5.898438 22.554688 5.898438 22.78125L5.898438 23.59375C5.898438 23.816406 6.082031 24 6.304688 24L17.695312 24C17.917969 24 18.101562 23.816406 18.101562 23.59375L18.101562 22.78125C18.101562 22.554688 17.917969 22.371094 17.695312 22.371094zM17.695312 22.371094"/>
    <path d="M 13.628906 3.253906 C 13.628906 2.355469 12.898438 1.628906 12 1.628906 C 11.101562 1.628906 10.371094 2.355469 10.371094 3.253906 C 10.371094 4.152344 11.101562 4.882812 12 4.882812 C 12.898438 4.882812 13.628906 4.152344 13.628906 3.253906 Z M 11.1875 3.253906 C 11.1875 2.804688 11.550781 2.441406 12 2.441406 C 12.449219 2.441406 12.8125 2.804688 12.8125 3.253906 C 12.8125 3.703125 12.449219 4.066406 12 4.066406 C 11.550781 4.066406 11.1875 3.703125 11.1875 3.253906 Z M 11.1875 3.253906"/>
</svg>

<svg xmlns="http://www.w3.org/2000/svg" width="32" height="32" viewBox="0 0 24 24">
    <path d="M5.086 15.863c0 3.813 3.101 6.918 6.914 6.918 3.813 0 6.914-3.105 6.914-6.918A6.922 6.922 0 0 0 12 8.95a6.922 6.922 0 0 0-6.914 6.914zm13.016 0A6.107 6.107 0 0 1 12 21.965a6.107 6.107 0 0 1-6.102-6.102A6.11 6.11 0 0 1 12 9.762a6.11 6.11 0 0 1 6.102 6.101zm0 0"/>
    <path d="M6.219 21.836a.941.941 0 0 0-.137-1.012 7.713 7.713 0 0 1-1.812-4.96c0-2.16.918-4.235 2.52-5.696a.924.924 0 0 0 .241-1.027.931.931 0 0 0-.875-.598h-4.34c-.668 0-1.207.539-1.207 1.203v11.422c0 .664.54 1.203 1.207 1.203h3.559a.916.916 0 0 0 .844-.535zm-.739-.344c-.02.043-.054.067-.109.067H1.816a.393.393 0 0 1-.394-.391V9.746c0-.215.176-.39.394-.39h4.34c.07 0 .102.042.117.078.012.035.02.086-.03.132a8.545 8.545 0 0 0-2.786 6.297c0 2.004.711 3.95 2.004 5.485.047.058.035.117.02.144zm0 0M22.184 8.543h-4.34a.931.931 0 0 0-.875.598.924.924 0 0 0 .242 1.027 7.726 7.726 0 0 1 2.52 5.695 7.713 7.713 0 0 1-1.813 4.961.94.94 0 0 0-.137 1.012.916.916 0 0 0 .844.535h3.563c.664 0 1.203-.539 1.203-1.203V9.746c0-.664-.54-1.203-1.207-1.203zm.394 12.625c0 .215-.176.39-.394.39h-3.559a.108.108 0 0 1-.105-.066c-.016-.027-.028-.086.02-.144a8.521 8.521 0 0 0 2.003-5.485 8.545 8.545 0 0 0-2.785-6.297c-.051-.046-.043-.097-.031-.132.015-.036.046-.079.117-.079h4.34a.39.39 0 0 1 .39.391s0 11.422.004 11.422zm0 0M8.746 15.863A3.257 3.257 0 0 0 12 19.117a3.257 3.257 0 0 0 3.254-3.254A3.26 3.26 0 0 0 12 12.61a3.26 3.26 0 0 0-3.254 3.254zm5.695 0a2.442 2.442 0 0 1-4.882 0A2.445 2.445 0 0 1 12 13.422a2.445 2.445 0 0 1 2.441 2.441zm0 0M5.086 6.102H1.832v2.035h3.254zM4.27 7.32H2.645v-.406H4.27zm0 0M18.914 8.137h2.848a.406.406 0 0 0 .406-.407c0-.226-.18-.41-.406-.41h-2.848a.408.408 0 0 0 0 .816zm0 0M7.117 8.543a.41.41 0 0 0 .41-.406h8.946a.408.408 0 0 0 .816 0V7.73a.41.41 0 0 0-.406-.41h-3.664V6.27a3.26 3.26 0 0 0 2.035-3.016A3.26 3.26 0 0 0 12 0a3.26 3.26 0 0 0-3.254 3.254 3.26 3.26 0 0 0 2.035 3.016v1.05H7.117a.41.41 0 0 0-.406.41v.407c0 .222.184.406.406.406zm5.29-1.223h-.813v-.836h.027a3.036 3.036 0 0 0 .758 0h.027zM9.558 3.254A2.445 2.445 0 0 1 12 .812a2.445 2.445 0 0 1 2.441 2.442c0 1.09-.718 2.012-1.703 2.328l-.035.008c-.004.004-.008.004-.012.004-.101.031-.207.05-.308.066l-.059.012a2.573 2.573 0 0 1-.648 0l-.059-.012a2.066 2.066 0 0 1-.308-.066c-.004 0-.008 0-.012-.004l-.035-.008a2.446 2.446 0 0 1-1.703-2.328zm0 0M17.695 22.371a.407.407 0 0 0-.406.41v.407H6.711v-.407a.407.407 0 1 0-.813 0v.813c0 .222.184.406.407.406h11.39a.408.408 0 0 0 .407-.406v-.813a.41.41 0 0 0-.407-.41zm0 0"/>
    <path d="M13.629 3.254c0-.899-.73-1.625-1.629-1.625a1.627 1.627 0 1 0 0 3.254 1.63 1.63 0 0 0 1.629-1.63zm-2.441 0a.812.812 0 1 1 1.623-.001.812.812 0 0 1-1.623 0zm0 0"/>
</svg>
